X:1553
T:Dinny O'Brien's Reel
O:england
M:C|
L:1/8
S:Billy McComiskey, via Dan Cummins and Beverly Buchannan
K:G
fddd ABcA|dcAd cAGE|D2FD ADFD|(3EFG AB cdeg|
fddd ABcA|dcAd cAGE|D2AD (3EFG AB|cAGE ADD2:|
fed^c defg|add2 adfa|gccB cdef|gccc gceg|
fddd ABcA|dcAd cAGE|D2AD (3EFG AB|cAGE ADD2:||


